X:67
T:British Grenadiers
B:Terry "Cuz" Teahan "Sliabh Luachra on Parade" 1980
Z:Patrick Cavanagh
M:4/4
L:1/8
R:March
K:G
E/F/ | GDGA BGAB/c/ | dBBA GEED | GDGA BGAB/c/ | dBBA G2G :| 
A/c/ | d2dc BcdB/d/ | edBA AGED/E/ | GDGA BGAB/c/ | dBBA G2G :|| 

